!!!COA:	Josquin des Prez
!!!CDT:	~1450-1521/08/27
!!!OTL:	Mala se nea
!!!AGN:	Chanson
!!!SCT:	NJE 29.15
!!!SCA:	New Josquin Edition 29.15
!!!voices:	5
**kern	**kern	**kern	**kern	**kern
*Ivox	*Ivox	*Ivox	*Ivox	*Ivox
*I"Bassus	*I"Tenor2	*I"Tenor	*I"Altus	*I"Superius
*I'B	*I'T2	*I'T	*I'A	*I'S
*staff5	*staff4	*staff3	*staff2	*staff1
*clefF4	*clefF4	*clefGv2	*clefGv2	*clefG2
*k[b-]	*k[b-]	*k[b-]	*k[b-]	*k[b-]
*M2/1	*M2/1	*M2/1	*M2/1	*M2/1
*met(C|)	*met(C|)	*met(C|)	*met(C|)	*met(C|)
=1-	=1-	=1-	=1-	=1-
2D\	0r	1r	0r	0r
4D\	.	.	.	.
4E\	.	.	.	.
2F\	.	2A/	.	.
2F\	.	4A/	.	.
.	.	4B-\	.	.
=2	=2	=2	=2	=2
2F\	0r	2c\	0r	0r
2F\	.	2c\	.	.
1E	.	2c\	.	.
.	.	2c\	.	.
=3	=3	=3	=3	=3
0D	0r	2B-\	2d\	1r
.	.	4A/	4d\	.
.	.	4G/	4e\	.
.	.	[1F	2f\	2a/
.	.	.	2f\	4a/
.	.	.	.	4b-\
=4	=4	=4	=4	=4
0r	2A\	1F]	2f\	2cc\
.	4A\	.	2f\	2cc\
.	4B-\	.	.	.
.	2c\	1r	1e	2cc\
.	2c\	.	.	2cc\
=5	=5	=5	=5	=5
0r	2G\	0r	0d	2.b-\
.	2G\	.	.	.
.	.	.	.	8a/L
.	.	.	.	8g/J
.	2B-\	.	.	[1f
.	4A\	.	.	.
.	4G\	.	.	.
=6	=6	=6	=6	=6
2D\	1F	1r	0r	0f]
4D\	.	.	.	.
4E\	.	.	.	.
2F\	2F\	2A/	.	.
2D\	4F\	4A/	.	.
.	4F\	4B-\	.	.
=7	=7	=7	=7	=7
2E\	2G\	2c\	1r	0r
2C/	2E\	2A/	.	.
1BB-	4F\	2B-\	2d\	.
.	4E\	.	.	.
.	4D\	2G/	4d\	.
.	4C/	.	4e\	.
=8	=8	=8	=8	=8
0r	2D\	1F	2f\	2a/
.	2D\	.	2d\	4a/
.	.	.	.	4b-\
.	2C/	1r	2e\	2cc\
.	2F\	.	2c\	2a/
=9	=9	=9	=9	=9
1r	2G\	1r	1B-	2b-\
.	2E\	.	.	2g/
2F\	2F\	2A/	1r	1f
4F\	2D\	4A/	.	.
4F\	.	4B-\	.	.
=10	=10	=10	=10	=10
2G\	2E\	2c\	1r	0r
2E\	2C/	2A/	.	.
4F\	1BB-	2B-\	2d\	.
4E\	.	.	.	.
4D\	.	2G/	4d\	.
4C/	.	.	4e\	.
=11	=11	=11	=11	=11
2D\	0r	1F	2f\	2a/
2D\	.	.	2d\	4a/
.	.	.	.	4b-\
2C/	.	1r	2e\	2cc\
2F\	.	.	2c\	2a/
=12	=12	=12	=12	=12
2G\	1r	0r	1B-	2b-\
2E-\	.	.	.	2g/
1F	2D\	.	1r	1f
.	4D\	.	.	.
.	4E\	.	.	.
=13	=13	=13	=13	=13
1r	2F\	2A/	0r	0r
.	2F\	4A/	.	.
.	.	4B-\	.	.
2AA/	2F\	2c\	.	.
4AA/	2F\	2c\	.	.
4BB-/	.	.	.	.
=14	=14	=14	=14	=14
2C/	1E	2c\	0r	0r
2C/	.	2c\	.	.
2GG/	[1D	2.B-\	.	.
2GG/	.	.	.	.
.	.	8A/L	.	.
.	.	8G/J	.	.
=15	=15	=15	=15	=15
2BB-/	1D]	[0F	2d\	1r
4AA/	.	.	4d\	.
4GG/	.	.	4e\	.
1FF	1r	.	2f\	2a/
.	.	.	2f\	4a/
.	.	.	.	4b-\
=16	=16	=16	=16	=16
0r	2A\	1F]	2f\	2cc\
.	4A\	.	2f\	2cc\
.	4B-\	.	.	.
.	2c\	1r	1e	2cc\
.	2c\	.	.	2cc\
=17	=17	=17	=17	=17
0r	2G\	0r	0d	2.b-\
.	2G\	.	.	.
.	.	.	.	8a/L
.	.	.	.	8g/J
.	2.B-\	.	.	[1f
.	8A\L	.	.	.
.	8G\J	.	.	.
=18	=18	=18	=18	=18
2D\	1F	1r	0r	0f]
4D\	.	.	.	.
4E\	.	.	.	.
2F\	2F\	2A/	.	.
2D\	4F\	4A/	.	.
.	4F\	4B-\	.	.
=19	=19	=19	=19	=19
2E-i\	2G\	2c\	1r	0r
2C/	2E\	2A/	.	.
1BB-	4F\	2B-\	2d\	.
.	4E\	.	.	.
.	4D\	2G/	4d\	.
.	4C/	.	4e\	.
=20	=20	=20	=20	=20
0r	2D\	1F	2f\	2a/
.	2D\	.	2d\	4a/
.	.	.	.	4b-\
.	2C/	1r	2e\	2cc\
.	2r	.	2c\	2a/
=21	=21	=21	=21	=21
0r	1r	1r	1B-	2b-\
.	.	.	.	2g/
.	2F\	2A/	2f\	2f/
.	4F\	4A/	4f\	2a/
.	4D\	4B-\	4f\	.
=22	=22	=22	=22	=22
0r	2E\	2c\	2e\	2g/
.	2F\	2A/	2c\	1f
.	2BB-/	2B-\	2d\	.
.	2C/	2G/	2c\	2e/
=23	=23	=23	=23	=23
2r	2F\	1F	2A/	1f
2D\	2F\	.	2B-\	.
2C/	2E\	2r	2c\	1cc
2C/	2E\	2A/	2A/	.
=24	=24	=24	=24	=24
2.GG/	1D	2G/	2B-\	2b-\
.	.	2G/	2B-\	2b-\
4AA/	.	.	.	.
2BB-/	1r	2.D/	4B-\	2.f/
.	.	.	8A/L	.
.	.	.	8G/J	.
2BB-/	.	.	[2F/	.
.	.	4E/	.	4g/
=25	=25	=25	=25	=25
1FF	2r	2F/	4F/]	2a/
.	.	.	4G/	.
.	2A\	2F/	4A/	1f
.	.	.	4B-\	.
1r	2G\	1C	2c\	.
.	2G\	.	2C/	2e/
=26	=26	=26	=26	=26
0r	2.D\	1r	2.F/	2f/
.	.	.	.	2f/
.	4E\	.	4G/	.
.	2F\	2r	2A/	2c/
.	2F\	2F/	2A/	[2f/
=27	=27	=27	=27	=27
1r	1C	2G/	2G/	2f/]
.	.	2G/	2G/	2e/
2r	1r	1F	2.D/	1f
2F\	.	.	.	.
.	.	.	4E/	.
=28	=28	=28	=28	=28
2FF/	2r	1r	2F/	[0c
1F	2F\	.	2F/	.
.	2G\	2r	1C	.
2E\	2G\	2C/	.	.
=29	=29	=29	=29	=29
2F\	2F\	2F/	1r	0c_
2A\	2F\	2F/	.	.
2G\	2E\	1C	2r	.
2G\	2E\	.	2C/	.
=30	=30	=30	=30	=30
2F\	2F\	0r	2F/	0c]
2F\	2A\	.	2F/	.
2E\	2G\	.	1C	.
2E\	2G\	.	.	.
=31	=31	=31	=31	=31
1F	1F	0r	2.F/	1r
.	.	.	4E/	.
1r	1r	.	2F/	2.f/
.	.	.	2G/	.
.	.	.	.	4e/
=32	=32	=32	=32	=32
0r	0r	2.F/	2A/	2f/
.	.	.	2B-\	2g/
.	.	4E/	.	.
.	.	2F/	2A/	2a/
.	.	2G/	2G/	[2dd\
=33	=33	=33	=33	=33
2.c\	0r	2.A/	0r	2dd\]
.	.	.	.	1cc
4B-\	.	4B-\	.	.
2A\	.	4c\	.	.
.	.	4A/	.	.
2G\	.	[2d\	.	2b-\
=34	=34	=34	=34	=34
2F\	1r	2d\]	2r	1cc
2E\	.	1c	2c\	.
1D	2r	.	1d	1r
.	2F\	2Bni\	.	.
=35	=35	=35	=35	=35
[0C	1G	[0c	1e	0r
.	2A\	.	2c\	.
.	2F\	.	[2f\	.
=36	=36	=36	=36	=36
0C]	2.A\	0c]	2f\]	0r
.	.	.	4e\	.
.	4B-\	.	4d\	.
.	1G	.	1e	.
=37	=37	=37	=37	=37
[0FF	[0F	0r	1f	0r
.	.	.	2c\	.
.	.	.	4c\	.
.	.	.	4d\	.
=38	=38	=38	=38	=38
0FF]	0F_	0r	2.c\	2cc\
.	.	.	.	4cc\
.	.	.	4B-\	4dd\
.	.	.	2A/	2.cc\
.	.	.	2G/	.
.	.	.	.	4b-\
=39	=39	=39	=39	=39
0r	0F]	1r	1F	2a/
.	.	.	.	2g/
.	.	2c\	1r	1f
.	.	4c\	.	.
.	.	4d\	.	.
=40	=40	=40	=40	=40
2F\	0r	2.c\	2f\	0r
4F\	.	.	4f\	.
4G\	.	4B-\	4e\	.
2.F\	.	2A/	2.d\	.
.	.	2G/	.	.
4E\	.	.	4c\	.
=41	=41	=41	=41	=41
2D\	2r	0F	2B-\	0r
2C/	2FF/	.	2A/	.
2BB-/	1F	.	2B-\	.
2D\	.	.	2B-\	.
=42	=42	=42	=42	=42
2C/	1E	2r	2c\	1cc
2C/	.	2A/	2A/	.
2.GG/	[1D	2G/	2B-\	2b-\
.	.	2G/	[2B-\	2b-\
4AA/	.	.	.	.
=43	=43	=43	=43	=43
2BB-/	1D]	2.D/	4B-\]	2.f/
.	.	.	8A/L	.
.	.	.	8G/J	.
2BB-/	.	.	2.F/	.
.	.	4E/	.	4g/
1FF	2r	2F/	.	2a/
.	.	.	4G/	.
.	2A\	2F/	4A/	[2f/
.	.	.	4B-\	.
=44	=44	=44	=44	=44
0r	2G\	1C	2c\	4f/]
.	.	.	.	4e/
.	2G\	.	2C/	4e/
.	.	.	.	4d/
.	2.D\	1r	2.F/	1f
.	4E\	.	4G/	.
=45	=45	=45	=45	=45
0r	2F\	2r	2A/	2r
.	2F\	2F/	2A/	1f
.	1C	2G/	2G/	.
.	.	2G/	2G/	2e/
=46	=46	=46	=46	=46
2r	1r	0F	2.D/	1f
2F\	.	.	.	.
.	.	.	4E/	.
2FF/	2r	.	2F/	[1c
[2F\	2F\	.	2F/	.
=47	=47	=47	=47	=47
2F\]	2G\	0r	1C	1c]
2E\	2G\	.	.	.
1F	1F	.	2c\	1r
.	.	.	4c\	.
.	.	.	4c\	.
=48	=48	=48	=48	=48
2BB-/	2F\	2D/	2d\	0r
4BB-/	4F\	4D/	4f\	.
4BB-/	4F\	4D/	4e\	.
2BB-/	2G\	2D/	4d\	.
.	.	.	4c\	.
2BB-/	2G\	2D/	[2d\	.
=49	=49	=49	=49	=49
2AA/	2C/	2E/	2d\]	1r
2AA/	2C/	2F/	1c	.
1GG	1D	2.G/	.	2g/
.	.	.	2Bni\	4g/
.	.	4F/	.	4g/
=50	=50	=50	=50	=50
1C	[0C	4E/	0c	2g/
.	.	4D/	.	.
.	.	4F/	.	2g/
.	.	4E/	.	.
[1FF	.	[1F	.	2a/
.	.	.	.	2b-\
=51	=51	=51	=51	=51
0FF]	1C]	1F]	2c\	2.cc\
.	.	.	4c\	.
.	.	.	4c\	4b-\
.	2F\	1r	2c\	4a/
.	.	.	.	4g/
.	4F\	.	2c\	4b-\
.	4F\	.	.	4a/
=52	=52	=52	=52	=52
2BB-/	2F\	2D/	2d\	0b-
4BB-/	2F\	4D/	4f\	.
4BB-/	.	4D/	4e\	.
2BB-/	2G\	2D/	4d\	.
.	.	.	4c\	.
2BB-/	2G\	2D/	[2d\	.
=53	=53	=53	=53	=53
2AA/	1C	2E/	2d\]	1r
2AA/	.	2F/	1c	.
1GG	1D	2.G/	.	2g/
.	.	.	2Bni\	4g/
.	.	4F/	.	4g/
=54	=54	=54	=54	=54
1C	[0Cl	4E/	[0cl	2g/
.	.	4D/	.	.
.	.	4F/	.	2g/
.	.	4E/	.	.
1FF	.	2F/	.	2a/
.	.	2G/	.	2b-\
=55	=55	=55	=55	=55
2r	0C_	2.A/	0c_	2.cc\
2FF/	.	.	.	.
.	.	8G/L	.	4b-\
.	.	8F/J	.	.
2FF/	.	2F/	.	2a/
2EE/	.	2G/	.	[2g/
=56	=56	=56	=56	=56
1FF	0C_	2.A/	0c_	2g/]
.	.	.	.	1f
.	.	4B-\	.	.
1C	.	1G	.	.
.	.	.	.	2e/
=57	=57	=57	=57	=57
0FFl	0C]	0Fl	0c]	0fl
==	==	==	==	==
*-	*-	*-	*-	*-
!!!RDF**kern: l=long note in original notation
!!!RDF**kern: i=editorial accidental
!!!RDF**kern: V=start of tuplet marker
!!!RDF**kern: Z=end of tuplet marker
!!!ENC:	Chris Gage 06-08-2012
!!!END:	2012/06/08/
!!!EED:	Jesse Rodin
!!!EEV:	2012/06/20/
!!attribution-level@Jos: 5 (doubtful)
!!!ONB:	Translated from MusicXML and edited on 2012/06/20/ by Craig Sapp
!!muse2ps: C^@{COA}?\n@{SCT}^i2I150v85,85,85,85,130Q16
